X:13758
T:Quand j'etais jeune
T:Hanter dro
S:from record
S:Dir Hir Tan: Celtic Songs From Brittany (Ariane Segal)
O:France, Brittany
L:1/8
M:2/4
Q:1/4=180
K:Gm
|:"Cm"c2 "Gm"BA| G2 B2| "F"AG F2|"Gm"G2 "F"FE| "Gm"D2 G2|\
[1 "F"AB "Gm"G2 :|[2 "Gm"G2 "F"z2|
|:"Gm"G2 "F"AB| "Cm"c2 "F"A2| "Gm"B2 G2| G2 "F"AB| "Cm"c2 "Gm"B2 | "F"A4:|
